Newaita-dark/mimetypes/scalable/virtualbox-vmdk.svg

<?xml version="1.0" encoding="UTF-8"?>
<svg xmlns="http://www.w3.org/2000/svg" xmlns:xlink="http://www.w3.org/1999/xlink" width="512pt" height="512pt" viewBox="0 0 512 512" version="1.1">
<defs>
<linearGradient id="linear0" gradientUnits="userSpaceOnUse" x1="254" y1="233.5" x2="254" y2="254.666672" gradientTransform="matrix(1.000095,0,0,1.000095,-0.000061041,215.020562)">
<stop offset="0" style="stop-color:rgb(0%,0%,0%);stop-opacity:0.27451;"/>
<stop offset="1" style="stop-color:rgb(0%,0%,0%);stop-opacity:0;"/>
</linearGradient>
<radialGradient id="radial0" gradientUnits="userSpaceOnUse" cx="450.908936" cy="189.579361" fx="450.908936" fy="189.579361" r="21.166656" gradientTransform="matrix(0.00000278673,-1.250119,-2.250215,-0.00000162462,849.966879,1017.525321)">
<stop offset="0" style="stop-color:rgb(0%,0%,0%);stop-opacity:0.313725;"/>
<stop offset="0.222222" style="stop-color:rgb(0%,0%,0%);stop-opacity:0.27451;"/>
<stop offset="1" style="stop-color:rgb(0%,0%,0%);stop-opacity:0;"/>
</radialGradient>
<radialGradient id="radial1" gradientUnits="userSpaceOnUse" cx="450.908936" cy="189.579361" fx="450.908936" fy="189.579361" r="21.166656" gradientTransform="matrix(-0.00000278673,1.250119,2.250215,0.00000162462,-339.272325,-120.439662)">
<stop offset="0" style="stop-color:rgb(0%,0%,0%);stop-opacity:0.313725;"/>
<stop offset="0.222222" style="stop-color:rgb(0%,0%,0%);stop-opacity:0.27451;"/>
<stop offset="1" style="stop-color:rgb(0%,0%,0%);stop-opacity:0;"/>
</radialGradient>
<radialGradient id="radial2" gradientUnits="userSpaceOnUse" cx="450.908936" cy="189.579361" fx="450.908936" fy="189.579361" r="21.166656" gradientTransform="matrix(-0.00000278673,-1.250119,2.250215,-0.00000162462,-339.272325,1017.525321)">
<stop offset="0" style="stop-color:rgb(0%,0%,0%);stop-opacity:0.313725;"/>
<stop offset="0.222222" style="stop-color:rgb(0%,0%,0%);stop-opacity:0.27451;"/>
<stop offset="1" style="stop-color:rgb(0%,0%,0%);stop-opacity:0;"/>
</radialGradient>
<radialGradient id="radial3" gradientUnits="userSpaceOnUse" cx="450.908936" cy="189.579361" fx="450.908936" fy="189.579361" r="21.166656" gradientTransform="matrix(0.00000278673,1.250119,-2.250215,0.00000162462,849.966856,-120.43967)">
<stop offset="0" style="stop-color:rgb(0%,0%,0%);stop-opacity:0.313725;"/>
<stop offset="0.222222" style="stop-color:rgb(0%,0%,0%);stop-opacity:0.27451;"/>
<stop offset="1" style="stop-color:rgb(0%,0%,0%);stop-opacity:0;"/>
</radialGradient>
<linearGradient id="linear1" gradientUnits="userSpaceOnUse" x1="254" y1="-168.666656" x2="254" y2="233.5" gradientTransform="matrix(1.000095,0,0,1.000095,0,215.020531)">
<stop offset="0" style="stop-color:rgb(50.196078%,79.607843%,76.862745%);stop-opacity:1;"/>
<stop offset="1" style="stop-color:rgb(30.196078%,71.372549%,67.45098%);stop-opacity:1;"/>
</linearGradient>
<linearGradient id="linear2" gradientUnits="userSpaceOnUse" x1="253.130798" y1="-129.433121" x2="253.130798" y2="272.733551" gradientTransform="matrix(3.779528,0,0,3.779528,3.285154,664.314209)">
<stop offset="0" style="stop-color:rgb(73.72549%,66.666667%,64.313725%);stop-opacity:1;"/>
<stop offset="1" style="stop-color:rgb(84.313725%,80%,78.431373%);stop-opacity:1;"/>
</linearGradient>
</defs>
<g id="surface1">
<path style=" stroke:none;fill-rule:nonzero;fill:rgb(0%,0%,0%);fill-opacity:0.196078;" d="M 63.507812 448.542969 C 51.777344 448.542969 42.335938 439.101562 42.335938 427.375 L 42.335938 424.726562 C 42.335938 436.457031 51.777344 445.898438 63.507812 445.898438 L 444.542969 445.898438 C 456.269531 445.898438 465.710938 436.457031 465.710938 424.726562 L 465.710938 427.375 C 465.710938 439.101562 456.269531 448.542969 444.542969 448.542969 Z M 63.507812 448.542969 "/>
<path style=" stroke:none;fill-rule:nonzero;fill:url(#linear0);" d="M 82.027344 448.542969 L 428.664062 448.542969 L 428.664062 469.710938 L 82.027344 469.710938 Z M 82.027344 448.542969 "/>
<path style=" stroke:none;fill-rule:nonzero;fill:url(#radial0);" d="M 428.664062 448.542969 L 471.003906 448.542969 L 471.003906 427.375 L 428.664062 427.375 Z M 428.664062 448.542969 "/>
<path style=" stroke:none;fill-rule:nonzero;fill:url(#radial1);" d="M 82.027344 448.542969 L 39.691406 448.542969 L 39.691406 469.710938 L 82.027344 469.710938 Z M 82.027344 448.542969 "/>
<path style=" stroke:none;fill-rule:nonzero;fill:url(#radial2);" d="M 82.027344 448.542969 L 39.691406 448.542969 L 39.691406 427.375 L 82.027344 427.375 Z M 82.027344 448.542969 "/>
<path style=" stroke:none;fill-rule:nonzero;fill:url(#radial3);" d="M 428.664062 448.542969 L 471.003906 448.542969 L 471.003906 469.710938 L 428.664062 469.710938 Z M 428.664062 448.542969 "/>
<path style=" stroke:none;fill-rule:nonzero;fill:url(#linear1);" d="M 58.214844 46.335938 L 449.835938 46.335938 C 458.601562 46.335938 465.710938 53.445312 465.710938 62.214844 L 465.710938 432.667969 C 465.710938 441.433594 458.601562 448.542969 449.835938 448.542969 L 58.214844 448.542969 C 49.445312 448.542969 42.335938 441.433594 42.335938 432.667969 L 42.335938 62.214844 C 42.335938 53.445312 49.445312 46.335938 58.214844 46.335938 Z M 58.214844 46.335938 "/>
<path style="fill:none;stroke-width:21.155001;stroke-linecap:butt;stroke-linejoin:miter;stroke:rgb(7.843138%,7.843138%,7.843138%);stroke-opacity:0.235294;stroke-miterlimit:4;" d="M 148.165538 85.334601 L 179.916413 85.334601 L 222.248308 169.998391 L 275.165129 21.832852 L 317.50093 117.081569 L 349.251804 42.9988 L 391.583699 138.251422 L 433.915594 138.251422 " transform="matrix(1.000095,0,0,1.000095,0,215.020531)"/>
<path style=" stroke:none;fill-rule:nonzero;fill:rgb(100%,100%,100%);fill-opacity:0.0784314;" d="M 42.335938 390.328125 L 42.335938 432.667969 C 42.335938 441.460938 49.417969 448.542969 58.214844 448.542969 L 449.835938 448.542969 C 458.628906 448.542969 465.710938 441.460938 465.710938 432.667969 L 465.710938 390.328125 Z M 42.335938 390.328125 "/>
<path style=" stroke:none;fill-rule:nonzero;fill:rgb(0%,0%,0%);fill-opacity:0.235294;" d="M 201.558594 46.335938 L 202.632812 183.726562 L 210.117188 191.210938 L 217.1875 184.140625 L 224.253906 191.210938 L 231.53125 183.933594 L 238.808594 191.210938 L 246.085938 183.933594 L 253.363281 191.210938 L 260.640625 183.933594 L 267.917969 191.210938 L 275.191406 183.933594 L 282.46875 191.210938 L 289.746094 183.933594 L 297.023438 191.210938 L 304.507812 183.726562 L 304.507812 46.335938 Z M 201.558594 46.335938 "/>
<path style="fill-rule:nonzero;fill:url(#linear2);stroke-width:11.338583;stroke-linecap:round;stroke-linejoin:round;stroke:rgb(12.941177%,12.941177%,12.941177%);stroke-opacity:1;stroke-miterlimit:4;" d="M 764.439835 175.11124 L 768.278051 666.831041 L 796.577516 695.115743 L 823.282644 668.395852 L 850.002535 695.115743 L 877.504831 667.613447 L 905.007128 695.115743 L 932.494662 667.613447 L 959.996958 695.115743 L 987.499254 667.613447 L 1015.001551 695.115743 L 1042.503847 667.613447 L 1070.006143 695.115743 L 1097.493677 667.613447 L 1124.995974 695.115743 L 1153.280676 666.831041 L 1153.280676 175.11124 Z M 764.439835 175.11124 " transform="matrix(0.264609,0,0,0.264609,0,0)"/>
<path style=" stroke:none;fill-rule:nonzero;fill:rgb(100%,100%,100%);fill-opacity:0.392157;" d="M 58.214844 46.335938 C 49.417969 46.335938 42.335938 53.417969 42.335938 62.214844 L 42.335938 67.507812 C 42.335938 58.710938 49.417969 51.628906 58.214844 51.628906 L 449.835938 51.628906 C 458.628906 51.628906 465.710938 58.710938 465.710938 67.507812 L 465.710938 62.214844 C 465.710938 53.417969 458.628906 46.335938 449.835938 46.335938 Z M 58.214844 46.335938 "/>
<path style=" stroke:none;fill-rule:nonzero;fill:rgb(1.960784%,1.960784%,1.960784%);fill-opacity:0.235294;" d="M 58.214844 448.542969 C 49.417969 448.542969 42.335938 441.460938 42.335938 432.667969 L 42.335938 427.375 C 42.335938 436.167969 49.417969 443.25 58.214844 443.25 L 449.835938 443.25 C 458.628906 443.25 465.710938 436.167969 465.710938 427.375 L 465.710938 432.667969 C 465.710938 441.460938 458.628906 448.542969 449.835938 448.542969 Z M 58.214844 448.542969 "/>
<path style=" stroke:none;fill-rule:nonzero;fill:rgb(12.941177%,12.941177%,12.941177%);fill-opacity:1;" d="M 58.214844 44.839844 C 48.613281 44.839844 40.835938 52.613281 40.835938 62.214844 L 40.835938 432.667969 C 40.835938 442.265625 48.613281 450.042969 58.214844 450.042969 L 449.832031 450.042969 C 459.433594 450.042969 467.210938 442.265625 467.210938 432.667969 L 467.210938 62.214844 C 467.210938 52.613281 459.433594 44.839844 449.832031 44.839844 Z M 58.214844 47.839844 L 449.832031 47.839844 C 457.824219 47.839844 464.210938 54.222656 464.210938 62.214844 L 464.210938 432.667969 C 464.210938 440.65625 457.824219 447.042969 449.832031 447.042969 L 58.214844 447.042969 C 50.222656 447.042969 43.839844 440.65625 43.839844 432.667969 L 43.839844 62.214844 C 43.839844 54.222656 50.222656 47.839844 58.214844 47.839844 Z M 58.214844 47.839844 "/>
<path style=" stroke:none;fill-rule:nonzero;fill:rgb(0%,0%,0%);fill-opacity:0.235294;" d="M 100.550781 67.507812 L 74.089844 99.257812 L 89.96875 99.257812 L 89.96875 141.597656 L 111.136719 141.597656 L 111.136719 99.257812 L 127.011719 99.257812 Z M 100.550781 67.507812 "/>
<path style=" stroke:none;fill-rule:nonzero;fill:rgb(0%,0%,0%);fill-opacity:0.235294;" d="M 153.472656 67.507812 L 127.011719 99.257812 L 142.886719 99.257812 L 142.886719 141.597656 L 164.058594 141.597656 L 164.058594 99.257812 L 179.933594 99.257812 Z M 153.472656 67.507812 "/>
<path style=" stroke:none;fill-rule:nonzero;fill:rgb(0%,0%,0%);fill-opacity:0.235294;" d="M 79.382812 152.179688 L 174.640625 152.179688 L 174.640625 162.765625 L 79.382812 162.765625 Z M 79.382812 152.179688 "/>
<path style=" stroke:none;fill-rule:nonzero;fill:rgb(25.490198%,25.490198%,25.490198%);fill-opacity:0.0784314;" d="M 58.214844 46.339844 C 49.417969 46.339844 42.335938 53.417969 42.335938 62.214844 L 42.335938 88.675781 L 465.710938 88.675781 L 465.710938 62.214844 C 465.710938 53.417969 458.628906 46.339844 449.835938 46.339844 Z M 58.214844 46.339844 "/>
</g>
</svg>

<svg xmlns="http://www.w3.org/2000/svg" width="512pt" height="512pt" viewBox="0 0 512 512"><defs><linearGradient id="a" gradientUnits="userSpaceOnUse" x1="254" y1="233.5" x2="254" y2="254.667" gradientTransform="matrix(1.0001 0 0 1.0001 0 215.02)"><stop offset="0" stop-opacity=".275"/><stop offset="1" stop-opacity="0"/></linearGradient><radialGradient id="b" gradientUnits="userSpaceOnUse" cx="450.909" cy="189.579" fx="450.909" fy="189.579" r="21.167" gradientTransform="matrix(0 -1.25012 -2.25021 0 849.967 1017.525)"><stop offset="0" stop-opacity=".314"/><stop offset=".222" stop-opacity=".275"/><stop offset="1" stop-opacity="0"/></radialGradient><radialGradient id="c" gradientUnits="userSpaceOnUse" cx="450.909" cy="189.579" fx="450.909" fy="189.579" r="21.167" gradientTransform="matrix(0 1.25012 2.25021 0 -339.272 -120.44)"><stop offset="0" stop-opacity=".314"/><stop offset=".222" stop-opacity=".275"/><stop offset="1" stop-opacity="0"/></radialGradient><radialGradient id="d" gradientUnits="userSpaceOnUse" cx="450.909" cy="189.579" fx="450.909" fy="189.579" r="21.167" gradientTransform="matrix(0 -1.25012 2.25021 0 -339.272 1017.525)"><stop offset="0" stop-opacity=".314"/><stop offset=".222" stop-opacity=".275"/><stop offset="1" stop-opacity="0"/></radialGradient><radialGradient id="e" gradientUnits="userSpaceOnUse" cx="450.909" cy="189.579" fx="450.909" fy="189.579" r="21.167" gradientTransform="matrix(0 1.25012 -2.25021 0 849.967 -120.44)"><stop offset="0" stop-opacity=".314"/><stop offset=".222" stop-opacity=".275"/><stop offset="1" stop-opacity="0"/></radialGradient><linearGradient id="f" gradientUnits="userSpaceOnUse" x1="254" y1="-168.667" x2="254" y2="233.5" gradientTransform="matrix(1.0001 0 0 1.0001 0 215.02)"><stop offset="0" stop-color="#80cbc4"/><stop offset="1" stop-color="#4db6ac"/></linearGradient><linearGradient id="g" gradientUnits="userSpaceOnUse" x1="253.131" y1="-129.433" x2="253.131" y2="272.734" gradientTransform="matrix(3.77953 0 0 3.77953 3.285 664.314)"><stop offset="0" stop-color="#bcaaa4"/><stop offset="1" stop-color="#d7ccc8"/></linearGradient></defs><path d="M63.508 448.543a21.123 21.123 0 0 1-21.172-21.168v-2.648a21.124 21.124 0 0 0 21.172 21.171h381.035a21.123 21.123 0 0 0 21.168-21.171v2.648a21.122 21.122 0 0 1-21.168 21.168zm0 0" fill-opacity=".196"/><path d="M82.027 448.543h346.637v21.168H82.027zm0 0" fill="url(#a)"/><path d="M428.664 448.543h42.34v-21.168h-42.34zm0 0" fill="url(#b)"/><path d="M82.027 448.543H39.691v21.168h42.336zm0 0" fill="url(#c)"/><path d="M82.027 448.543H39.691v-21.168h42.336zm0 0" fill="url(#d)"/><path d="M428.664 448.543h42.34v21.168h-42.34zm0 0" fill="url(#e)"/><path d="M58.215 46.336h391.62c8.767 0 15.876 7.11 15.876 15.879v370.453c0 8.766-7.11 15.875-15.875 15.875H58.215c-8.77 0-15.88-7.11-15.88-15.875V62.215c0-8.77 7.11-15.88 15.88-15.88zm0 0" fill="url(#f)"/><path d="M148.18 300.363h31.754l42.335 84.672 52.922-148.18 42.34 95.258 31.754-74.09 42.336 95.262h42.336" fill="none" stroke-width="21.15690395" stroke="#141414" stroke-opacity=".235"/><path d="M42.336 390.328v42.34a15.843 15.843 0 0 0 15.879 15.875h391.62a15.843 15.843 0 0 0 15.876-15.875v-42.34zm0 0" fill="#fff" fill-opacity=".078"/><path d="M201.559 46.336l1.074 137.39 7.484 7.485 7.07-7.07 7.067 7.07 7.277-7.277 7.278 7.277 7.277-7.277 7.277 7.277 7.278-7.277 7.277 7.277 7.273-7.277 7.278 7.277 7.277-7.277 7.277 7.277 7.485-7.484V46.336zm0 0" fill-opacity=".235"/><path d="M764.44 175.111l3.838 491.72 28.3 28.285 26.705-26.72 26.72 26.72 27.502-27.503 27.502 27.503 27.488-27.503 27.502 27.503 27.502-27.503 27.503 27.503 27.502-27.503 27.502 27.503 27.488-27.503 27.502 27.503 28.285-28.285v-491.72zm0 0" transform="rotate(.158) scale(.26461)" fill="url(#g)" stroke-width="11.339" stroke-linecap="round" stroke-linejoin="round" stroke="#212121"/><path d="M58.215 46.336a15.844 15.844 0 0 0-15.88 15.879v5.293a15.844 15.844 0 0 1 15.88-15.88h391.62a15.843 15.843 0 0 1 15.876 15.88v-5.293a15.843 15.843 0 0 0-15.875-15.88zm0 0" fill="#fff" fill-opacity=".392"/><path d="M58.215 448.543a15.843 15.843 0 0 1-15.88-15.875v-5.293a15.843 15.843 0 0 0 15.88 15.875h391.62a15.843 15.843 0 0 0 15.876-15.875v5.293a15.843 15.843 0 0 1-15.875 15.875zm0 0" fill="#050505" fill-opacity=".235"/><path d="M58.215 44.84c-9.602 0-17.38 7.773-17.38 17.375v370.453c0 9.598 7.778 17.375 17.38 17.375h391.617c9.602 0 17.379-7.777 17.379-17.375V62.215c0-9.602-7.777-17.375-17.379-17.375zm0 3h391.617a14.31 14.31 0 0 1 14.379 14.375v370.453a14.313 14.313 0 0 1-14.379 14.375H58.215a14.31 14.31 0 0 1-14.375-14.375V62.215A14.308 14.308 0 0 1 58.215 47.84zm0 0" fill="#212121"/><path d="M100.55 67.508l-26.46 31.75h15.879v42.34h21.168v-42.34h15.875zm0 0M153.473 67.508l-26.461 31.75h15.875v42.34h21.172v-42.34h15.875zm0 0M79.383 152.18h95.258v10.586H79.383zm0 0" fill-opacity=".235"/><path d="M58.215 46.34a15.84 15.84 0 0 0-15.88 15.875v26.46h423.376v-26.46a15.84 15.84 0 0 0-15.875-15.875zm0 0" fill="#414141" fill-opacity=".078"/></svg>
